!!!!SEGMENT: pl-wumfc--n8919--001-003_szymanowski-karol--dwanascie-piesni-op-17-xi-fragment-plomienny-spie-a-niosa-mnie.krn
!!!cenid: 19xx:83
!!!COM: Szymanowski, Karol
!!!COM-rismID: pe30106403
!!!CDT: 1882-1937
!!!CNT: Polish
!!!GTL: Dwanaście pieśni Op. 17
!!!OTL: XI. Fragment „Płomienny”/Śpię a niosą mnie
!!!OMV: 003
!!!PDT:
!!!AGN: Secular; Song
!!!YEC: Copyright 2022 Narodowy Instytut Fryderyka Chopina (https://polishscores.org)
!!!YEM: License CC-BY-4.0 (https://creativecommons.org/licenses/by/4.0)
!!!SMS-siglum: PL-Wumfc
!!!SMS-shelfmark: N8919
!!!SMS-variant:
!!!SMS-altvar:
!!!SMS-shelfwork: 001-003 G
!!!NIFC-rismSourceID: 1001170655
!!!NIFC-rismChildID: 1001170779
!!!NIFC-islandoraID: pl-wumfc:7736
!!!URL-pdf-islandora: https://repozytorium.nifc.pl/islandora/object/pl-wumfc%3A7736/datastream/PDF/view
!!!URL-scan: https://polish.musicsources.pl/pl/lokalizacje/galeria/druki-muzyczne/12686/6 @EN{Scan on Polish Music Sources Website} @PL{Skany w portalu Dziedzictwo Muzyki Polskiej w otwartym dostępie}
!!!IIIF:
!!!ONB-nifc: UWAGA: str. 6.
!!!OMD: Largo. Sempre piano. Poco misterioso. <i>
!!!AIN: 1 piano 1 vox
!!!key: D
**kern	**kern	**dynam	**kern	**text	**text	**dynam
*part2	*part2	*part2	*part1	*part1	*part1	*part1
*staff3	*staff2	*	*staff1	*staff1	*staff1	*
*ICklav	*ICklav	*	*ICvox	*	*	*
*Ipiano	*Ipiano	*	*Ivox	*	*	*
*I"Piano.	*I"Piano.	*	*I"Canto.	*	*	*
*clefF4	*clefG2	*	*clefG2	*	*	*
*k[f#c#]	*k[f#c#]	*	*k[f#c#]	*	*	*
*D:	*D:	*	*D:	*	*	*
*M4/4	*M4/4	*	*M4/4	*	*	*
*met(c)	*met(c)	*	*met(c)	*	*	*
=1	=1	=1	=1	=1	=1	=1
*	*^	*	*	*	*	*
!	!LO:TX:a:i:t=(legatissimo)	!	!	!	!	!	!
(2DDD/ 2DD	(2f#/	(8F#\L	ppp <	1r	.	.	.
.	.	8G#X\	.	.	.	.	.
.	.	8B#X\	.	.	.	.	.
.	.	[8A#X\J)	.	.	.	.	.
[2GGG#X/ [2GG#X	4.a#X^^/	(8A#\L]	.	.	.	.	.
.	.	8B#\	.	.	.	.	.
.	.	8f#\	.	.	.	.	.
.	8g#X/	8e\J)	[	.	.	.	.
=2	=2	=2	=2	=2	=2	=2	=2
4GGG#/] 4GG#]	4f#X/	8d\L	>	1r	.	.	.
.	.	8Bn\	.	.	.	.	.
4FFFn/ 4FFn	4fn/	8An\	.	.	.	.	.
.	.	[8d\J	.	.	.	.	.
!	!LO:TX:b:i:t=rit.	!	!	!	!	!	!
4DD/ 4D	4.G#X/ 4.g#X	8d\L]	.	.	.	.	.
.	.	8fnZ\J	.	.	.	.	.
4CC#/) 4C#	.	4e\	.	.	.	.	.
.	8A/) 8a	.	]	.	.	.	.
=3	=3	=3	=3	=3	=3	=3	=3
(<2FFF#X/ 2FF#X	(2cn/ 2ccn	8c\L	<	1r	.	.	.
.	.	8e\	.	.	.	.	.
.	.	8a\	.	.	.	.	.
.	.	[>8d#X\J	.	.	.	.	.
[2GGG#X/ [2GG#X	4.B/ 4.b	8d#\L]	.	.	.	.	.
.	.	8d#\	.	.	.	.	.
.	.	[>8f#\	.	.	.	.	.
!	!LO:TX:b:i:t=m.s.	!	!	!	!	!	!
.	8f#/] 8ff#	[8dn\J	[	.	.	.	.
=4	=4	=4	=4	=4	=4	=4	=4
4GGG#/] 4GG#]	2fn/ 2ffn	(8d\L]	.	1r	.	.	.
!	!LO:TX:b:i:t=m.d.	!	!	!	!	!	!
.	.	8B\	.	.	.	.	.
4AAA/ 4AA	.	8d\	.	.	.	.	.
.	.	[>8B-X\J	.	.	.	.	.
2CC#\) 2C#	4.e/ 4.ee	8B-</L]	.	.	.	.	.
!	!LO:TX:b:i:t=rit.	!	!	!	!	!	!
.	.	8A</	.	.	.	.	.
.	.	8c#</	.	.	.	.	.
.	8g#X/) 8gg#X	8G#X</J)	.	.	.	.	.
!!LO:LB:g=original
=5	=5	=5	=5	=5	=5	=5	=5
*^	*	*	*	*	*	*	*
8r	(2DD\ 2D	(2f#/ 2ff#X	(8f#X\L	<	2r	.	.	.
(<8G#X/L	.	.	8g#X\	.	.	.	.	.
8B#X/	.	.	8b#X\	.	.	.	.	.
8A#X/J)	.	.	[8a#X^^>\J)	.	.	.	.	.
!	!	!	!	!	!LO:TX:a:i:t=(dolcissimo)	!	!	!LO:DY:a:rj
8r	2GGG#X\ 2GG#X	4.a#^^/ 4.aa#X	(8a#\L]	[	4.a#X^^/	Schla-	<i>Spię	pp
(<8B#/L	.	.	8b#\	>	.	.	.	.
8f#/	.	.	8ff#\	.	.	.	.	.
8e/J)	.	8g#/ 8gg#X	8ee\J)	]	8g#X/	-fen	<i>a	.
=6	=6	=6	=6	=6	=6	=6	=6	=6
8r	4AAA\ 4AA	4f#/ 4ff#	(8dd\	<	4f#/	trägt	<i>nio-	.
(4c#/	.	.	4cc#\	.	.	.	.	.
.	4BBB-X\ 4BB-X	4fn/ 4ffn	.	.	4gn/	man	-<i>są	.
4Gn/	.	.	4gn\	.	.	.	.	.
!	!	!	!	!	!	!	!	!LO:HP:a
.	4BBBn\ 4BBn	4.G#X/ 4.g#X	.	.	(4.g#X/	mich	<i>mnie	<
8E/	.	.	8e\	.	.	.	.	.
4D#X/)	4BBB#X\) 4D#	.	4d#X\)	[	.	.	.	.
.	.	8An/) 8an	.	.	8an/)	.	.	[[
=7	=7	=7	=7	=7	=7	=7	=7	=7
*	*^	*	*^	*	*	*	*	*
8r	(<2FFF#\ 2FF#	2ryy	(2cn/ 2ccn	(8c\L	2ryy	.	4r	.	.	.
!	!	!	!	!	!	!LO:HP:t=poco cresc._:ext=s:ext=ud	!	!	!	!
(<8E/L	.	.	.	8e\	.	<	.	.	.	.
!	!	!	!	!	!	!	!	!	!	!LO:HP:a
8A/	.	.	.	8a\	.	.	2an/	in	<i>w mój	<
8D#X/J)	.	.	.	[8d#X\J)	.	.	.	.	.	.
8r	[2GGG#X\ [2GG#X	4ryy	2B/ 2b	(8d#\L]	4ryy	.	.	.	.	.
(<8Dn/L	.	.	.	8dn\	.	.	.	.	.	.
8E#X/	.	N(4E#^^/	.	8e#X\	&(>4e#^^/	.	4b\	mein	<i>oj-	.
[8C#/J)	.	.	.	[8c\J)	.	.	.	.	.	.
*	*v	*v	*	*	*	*	*	*	*	*
*	*	*	*v	*v	*	*	*	*	*
=8	=8	=8	=8	=8	=8	=8	=8	=8
8C#/L]	4GGG#\] 4GG#]	4F#/&)N) 4f#	8c\L]	.	2.ddn\	Hei-	-<i>czy-	.
8BB/J	.	.	8B\	.	.	.	.	.
4ryy	4FFFn/ 4AA	4Fn/ 4fn	8A\	[	.	.	.	.
.	.	.	[8d\J	.	.	.	.	.
2ryy	4DDD/ 4DD	4G#X/ 4g#X	8d\]	>	.	.	.	.
!	!	!LO:TX:b:i:t=rit.	!	!	!	!	!	!
.	.	.	4fn\	.	.	.	.	[
!	!	!	!	!	!LO:TX:a:i:t=rit.	!	!	!LO:HP:a
.	4CCC#/) 4CC#	4A#X/) 4a#X	.	.	4cc#\	-mat-	-<i>sty	> ]]
.	.	.	(>[8e^^>\	]]	.	.	.	.
!!LO:LB:g=original
=9	=9	=9	=9	=9	=9	=9	=9	=9
!	!	!	!	!	!	!	!	!LO:HP:a
8r	(2AAA#X\ 2AA#X	2e/ 2ee	8e\L]	<	(2ee\	-land.	<i>kraj.	<
8G#X/L	.	.	8g#X\	.	.	.	.	.
8c#X/	.	.	8cc#X\	.	.	.	.	.
8F##X/J	.	.	8f##X\J	.	.	.	.	[
!	!	!LO:TX:t=P:problem=mixed beam	!	!	!	!	!	!LO:HP:a
8r	[2CCn\ [2Cn	4.e-X/ 4.ee-X	8e-\L	.	4.ee-X\)	.	.	>
8Gn/L	.	.	8gn\	.	.	.	.	.
8B-X/	.	.	[>8b-X\	[	.	.	.	.
8G-X/J 8g-X	.	8b-/] 8bb-X	8g-X</J	.	8r	.	.	]
=10	=10	=10	=10	=10	=10	=10	=10	=10
8r>	4CC\] 4C]	2an/ 2aan	2ryy	<	1r	.	.	.
(<8e-X>\L	.	.	.	.	.	.	.	.
8G-X>\ 8g-X>	4DD-X\ 4D-X	.	.	.	.	.	.	.
[8dn>\J)	.	.	.	[	.	.	.	.
8d/L]	2FFn\) 2Fn	4.a-X/ 4.aa-X	(8a-\L	.	.	.	.	.
!	!	!	!	!LO:HP:t=dim. e rit.:ext=s	!	!	!	!
(<8d-X/	.	.	8dd-X\	>	.	.	.	.
8fn/	.	.	8ffn\	.	.	.	.	.
8cn/J)	.	8ccn/ 8cccn	8cc\J))	.	.	.	.	.
=11	=11	=11	=11	=11	=11	=11	=11	=11
*	*	*	*	*^	*	*	*	*
!	!	!	!	!LO:DY:b	!	!	!	!	!
8r	(2GGG-X\ 2GG-X	(2b-X/ 2bb-X	(8b-\L	pp <	.	2r	.	.	.
(8cn/L	.	.	8ccn\	.	.	.	.	.	.
8en/	.	.	8een\	.	<	.	.	.	.
8dn/J)	.	.	[>8ddn^^>\J)	[	.	.	.	.	.
!	!	!	!	!	!	!	!	!	!LO:DY:a
!	!	!	!	!LO:DY:b	!	!	!	!	!LO:HP:a
8r	2CCn\ 2Cn	4.dd^^/ 4.dddn	(8dd\L]	mp	.	4.ddn^^\	Fer-	<i>Zda-	mp >
(8e/L	.	.	8ee\	.	.	.	.	.	.
8b-X/	.	.	8bb-\	.	.	.	.	.	.
8a-X/J)	.	8cc/ 8cccn	8aa-X\J)	.	.	8ccn\	-ne	-<i>la	.
*	*	*	*	*v	*v	*	*	*	*
!!LO:PB:g=original
=12	=12	=12	=12	=12	=12	=12	=12	=12
8r	4DD-X\ 4D-X	4b-X/ 4bb-X	(8gg-X\	>	4b-X\	komm	<i>i-	.
(4fn/	.	.	4ffn\	.	.	.	.	.
.	4DDn\ 4Dn	4an/ 4aan	.	.	4an/	ich	-<i>dę	.
4Bn/	.	.	4bn\	.	.	.	.	.
.	4EE-X\ 4E-X	4.cn/ 4.ccn	.	.	4.cn/	her	<i>wciąż	]
!	!	!LO:TX:b:i:t=rall.	!	!	!	!	!	!
8A-X/	.	.	8a-X\	.	.	.	.	.
4G/)	4EEn\) 4G	.	4g\)	]	.	.	.	.
.	.	8d-X/) 8dd-X	.	.	8r	.	.	.
=13	=13	=13	=13	=13	=13	=13	=13	=13
!	!	!	!	!	!LO:TX:a:i:t=(poco avviv.)	!	!	!
8r	(2BBB-X\ 2BB-X	(2f-X/ 2ff-X	8f-\L	<	8r	.	.	.
!	!	!	!	!	!	!	!	!LO:HP:a
(8A-X/L	.	.	8a-X\	.	4a-X/	ü-	<i>po-	<
8d-X/	.	.	8dd-X\	.	.	.	.	.
8Gn/J)	.	.	8gn\J	.	8b-X\	-ber	-<i>nad	.
!	!	!	!	!	!	!	!	!LO:HP:a
2ryy	4BBBn\ 4BBn	8F#X/L 8f#X	8ryy	.	4cc-X\	Gip-	<i>szczy-	[ >
!	!	!LO:TX:b:i:t=rit.	!	!	!	!	!	!
!	!	!LO:N:vis=8.	!	!	!	!	!	!
.	.	8dn/	4.dn\	>	.	.	.	.
.	4FFFn\) 4FFn	8B-X/ 8b-X	.	.	4b-\	-fel,	-<i>ty,	]]
.	.	8a-X/J)	.	]	.	.	.	.
*v	*v	*	*	*	*	*	*	*
=14	=14	=14	=14	=14	=14	=14	=14
(4EEEn/ 4EEn	(8g/L	4gn\	<	8r	.	.	.
!	!	!	!	!	!	!	!LO:HP:a
.	8A#X/ 8a#X	.	.	4a#X/	ü-	<i>nad	<
4DDD#X/ 4DD#X	8f#/	4f#X\	.	.	.	.	.
.	8Bn/J 8bn	.	[	8bn\	-ber	<i>ot-	.
!	!	!	!	!	!	!	!LO:DY:a
4CCCn/ 4CCn	8e-X/L 8gn 8ee-X	8ryy	pp	4ee-X\	Schlün-	-<i>chła-	[ ppp
!	!LO:TX:b:i:t=rallent. _	!	!	!	!	!	!
.	8ccn/	4cc\	.	.	.	.	.
!	!	!	!	!LO:TX:a:i:t=rallent. _	!	!	!
4DDD-X/) 4DD-X	8d-X/ 8fn 8dd-X	.	.	4dd-X\	-de,	-<i>nie,	.
.	8b-X/J)	8b-\	.	.	.	.	.
!!LO:LB:g=original
=15	=15	=15	=15	=15	=15	=15	=15
*^	*	*	*	*	*	*	*
!	!	!	!	!	!LO:TX:t=P:problem=klamra łukowa	!	!	!
8r	2DDDn\ 2DDn	(>[<2c-X/ [2cc-X	8c-\L	.	6cc-X\	ü-	<i>przez	.
(8Fn/L	.	.	8fn\	.	.	.	.	.
.	.	.	.	.	6cc-\	-ber	<i>ciem-	.
8A-X/	.	.	8a-X\	.	.	.	.	.
.	.	.	.	.	6cc-\	ein	-<i>ną	.
8F-X/J)	.	.	[>8f-X\J	.	.	.	.	.
8r	2EEE-X\ 2EE-X	4c-/] 4cc-]	8f-\L]	.	4.a-X/	dunk-	<i>mo-	.
(8E-X/L	.	.	8e-X\	.	.	.	.	.
8A-X/	.	4B-X/) 4b-X	8a-\	.	.	.	.	.
8Dn/J)	.	.	8dn\J	.	8a-/	-les	-<i>rza	.
=16	=16	=16	=16	=16	=16	=16	=16	=16
!	!	!	!	!	!LO:TX:a:i:t=a tempo	!	!	!
8r	(2DDD#X\ 2DD#X	(2A/ 2an	(8An\L	.	2an/	Meer	<i>grąż	.
(8C#X/L	.	.	8c#X\	<	.	.	.	.
8F#X/	.	.	8f#X\	.	.	.	.	.
8BB#X/J)	.	.	8B#X\J)	.	.	.	.	.
8r	[2EEEn\ [2EEn	4.G#X/ 4.g#X	(8G#\L	[	2r	.	.	.
(8BB#/L	.	.	8B#\	.	.	.	.	.
8D#X/	.	.	[>8d#X\	.	.	.	.	.
8BBn/J)	.	8d#/)] 8dd#X	8Bn\J)	.	.	.	.	.
=17	=17	=17	=17	=17	=17	=17	=17	=17
!	!LO:TX:a:i:t=m.d.	!	!	!	!	!	!	!
8r	4EEE\] 4EE]	(>2dn/ 2ddn	2ryy	.	2r	.	.	.
(8G#X/L	.	.	.	.	.	.	.	.
8BB/ 8B	4EEE#X\ 4EE#X	.	.	<	.	.	.	.
8Gn/J)	.	.	.	.	.	.	.	.
!	!	!	!	!	!	!	!	!LO:HP:a
8r	2BBB-X\) 2BB-X	4.d-X/ 4.dd-X	8d-\L	.	4dd-X\	in	<i>W mój	<
(8G-X/L	.	.	8g-X\	.	.	.	.	.
!	!	!LO:TX:b:i:t=rit.	!	!	!	!	!	!
8B-X/	.	.	8b-X\	.	4ddn\	mein	<i>oj-	[[
8Fn/J)	.	8fn/) 8ffn	8f\J	.	.	.	.	.
!!LO:LB:g=original
=18	=18	=18	=18	=18	=18	=18	=18	=18
!	!	!	!	!	!	!	!	!LO:DY:a
!	!	!	!	!	!	!	!	!LO:HP:a
8r	(2CC-X\ 2C-X	(2e-X/ 2ee-X	8e-\L	p	(2ee-X\	Hei-	-<i>czy-	p <
(8Fn/L	.	.	(8fn\	.	.	.	.	.
8An/	.	.	8an\	.	.	.	.	.
8Gn/J)	.	.	[>8gn^^>\J)	.	.	.	.	[
!	!	!	!	!	!	!	!	!LO:DY:a
!	!	!	!	!	!	!	!	!LO:HP:a
8r	2FFFn\ 2FFn	4.g/ 4.ggnZ	8g\L]	ppp	4.ggn\)	.	.	ppp >
!	!	!LO:TX:b:i:t=rit.	!	!	!	!	!	!
(8A/L	.	.	(8a\	.	.	.	.	.
8e-X/	.	.	8ee-X\	.	.	.	.	.
8d-X/J)	.	8fn/ 8ffn	8dd-X\J)	.	8ffn\	-mat-	-<i>sty	]]
=19	=19	=19	=19	=19	=19	=19	=19	=19
8r	4GGG-X\ 4GG-X	4e-X/ 4ee-X	8cc-X\	>	(4ee-X\	-land.	<i>kraj.	.
4B-X/	.	.	4b-X\	.	.	.	.	.
.	4GGGn\ 4GGn	4dn/ 4ddn	.	.	2ddn\)	.	.	.
4En/	.	.	4en\	.	.	.	.	.
.	4AAAn\ 4AAn	4.F#X/ 4.f#X	.	.	.	.	.	.
!	!	!LO:TX:b:i:t=rall.	!	!	!	!	!	!
8Dn/	.	.	8dn\	]	.	.	.	.
4C#X/	4AAA#X\) 4C#	.	4c#X\	.	4r	.	.	.
.	.	8Gn/) 8gn	.	.	.	.	.	.
=20	=20	=20	=20	=20	=20	=20	=20	=20
!	!	!	!	!LO:HP:t=rall. e dim.:ext=s	!	!	!	!
8r	(2EEE\ 2EE	(2B-X/ 2b-X	8B-\L	>	1r	.	.	.
(8D/L	.	.	(8d\	.	.	.	.	.
8G/	.	.	8g\	.	.	.	.	.
8C#/J)	.	.	8c#\J)	.	.	.	.	.
8r	2EEE-X\ 2EE-X	2A/ 2a	8A\L	.	.	.	.	.
(8C#/L	.	.	(8c#\	.	.	.	.	.
8G/	.	.	8a\	.	.	.	.	.
8AA/J)	.	.	8A\J)	.	.	.	.	.
*v	*v	*	*	*	*	*	*	*
*	*v	*v	*	*	*	*	*
=21	=21	=21	=21	=21	=21	=21
1DDD); 1DD	1A;) 1d 1f# 1a	pppp	1r;	.	.	.
==	==	==	==	==	==	==
*-	*-	*-	*-	*-	*-	*-
!!!system-decoration: s1{(s2,s3)}
!!!RDF**kern: < = below
!!!RDF**kern: > = above
!!!RDF**kern: N = linked
!!!RDF**kern: Z = editorial accidental, paren
!!!ENC: Anastazja Marusiak
!!!END: 2023-09-28
!!!YEM: Copyright © 2023 by [Copyright Holder]
!!!EED: Marta Chmielewska
!!!EEV: 2023-11-25
